src/assets/flags/nu.svg

<?xml version="1.0" encoding="UTF-8"?>
<svg xmlns="http://www.w3.org/2000/svg" xmlns:xlink="http://www.w3.org/1999/xlink" width="25px" height="px" viewBox="0 0 25 19" version="1.1">
<g id="surface1">
<rect x="0" y="0" width="25" height="19" style="fill:rgb(99.607843%,86.666667%,0%);fill-opacity:1;stroke:none;"/>
<path style=" stroke:none;fill-rule:nonzero;fill:rgb(0.392157%,12.941177%,41.176471%);fill-opacity:1;" d="M 0 0 L 12.5 0 L 12.5 9.5 L 0 9.5 Z M 0 0 "/>
<path style=" stroke:none;fill-rule:nonzero;fill:rgb(100%,100%,100%);fill-opacity:1;" d="M 1.464844 0 L 6.230469 3.582031 L 10.976562 0 L 12.5 0 L 12.5 1.226562 L 7.8125 4.769531 L 12.5 8.292969 L 12.5 9.5 L 10.9375 9.5 L 6.25 5.957031 L 1.582031 9.5 L 0 9.5 L 0 8.3125 L 4.667969 4.789062 L 0 1.265625 L 0 0 Z M 1.464844 0 "/>
<path style=" stroke:none;fill-rule:nonzero;fill:rgb(78.431374%,6.27451%,18.039216%);fill-opacity:1;" d="M 8.28125 5.5625 L 12.5 8.707031 L 12.5 9.5 L 7.207031 5.5625 Z M 4.6875 5.957031 L 4.804688 6.648438 L 1.054688 9.5 L 0 9.5 Z M 12.5 0 L 12.5 0.0585938 L 7.636719 3.78125 L 7.675781 2.910156 L 11.523438 0 Z M 0 0 L 4.667969 3.484375 L 3.496094 3.484375 L 0 0.832031 Z M 0 0 "/>
<path style=" stroke:none;fill-rule:nonzero;fill:rgb(100%,100%,100%);fill-opacity:1;" d="M 4.707031 0 L 4.707031 9.5 L 7.832031 9.5 L 7.832031 0 Z M 0 3.167969 L 0 6.332031 L 12.5 6.332031 L 12.5 3.167969 Z M 0 3.167969 "/>
<path style=" stroke:none;fill-rule:nonzero;fill:rgb(78.431374%,6.27451%,18.039216%);fill-opacity:1;" d="M 0 3.820312 L 0 5.71875 L 12.5 5.71875 L 12.5 3.820312 Z M 5.332031 0 L 5.332031 9.5 L 7.207031 9.5 L 7.207031 0 Z M 5.332031 0 "/>
<path style=" stroke:none;fill-rule:nonzero;fill:rgb(0.392157%,12.941177%,41.176471%);fill-opacity:1;" d="M 7.84375 4.75 C 7.84375 3.859375 7.128906 3.136719 6.25 3.136719 C 5.371094 3.136719 4.65625 3.859375 4.65625 4.75 C 4.65625 5.640625 5.371094 6.363281 6.25 6.363281 C 7.128906 6.363281 7.84375 5.640625 7.84375 4.75 Z M 7.84375 4.75 "/>
<path style=" stroke:none;fill-rule:nonzero;fill:rgb(99.607843%,86.666667%,0%);fill-opacity:1;" d="M 6.25 3.136719 L 7.1875 6.054688 L 4.734375 4.25 L 7.765625 4.25 L 5.3125 6.054688 M 2.605469 3.890625 L 3.152344 5.609375 L 1.714844 4.550781 L 3.5 4.550781 L 2.054688 5.613281 M 9.894531 3.890625 L 10.445312 5.609375 L 9.003906 4.546875 L 10.789062 4.546875 L 9.34375 5.609375 M 6.25 7.058594 L 6.800781 8.777344 L 5.355469 7.714844 L 7.140625 7.714844 L 5.695312 8.777344 M 6.25 0.722656 L 6.800781 2.441406 L 5.355469 1.382812 L 7.140625 1.382812 L 5.695312 2.441406 "/>
</g>
</svg>

<svg xmlns="http://www.w3.org/2000/svg" width="25" height="px" viewBox="0 0 25 19"><path d="M0 0h25v19H0z" style="fill:#fedd00;fill-opacity:1;stroke:none"/><path d="M0 0h12.5v9.5H0Zm0 0" style="stroke:none;fill-rule:nonzero;fill:#012169;fill-opacity:1"/><path d="M1.465 0 6.23 3.582 10.977 0H12.5v1.227L7.813 4.77 12.5 8.293V9.5h-1.562L6.25 5.957 1.582 9.5H0V8.313l4.668-3.524L0 1.266V0Zm0 0" style="stroke:none;fill-rule:nonzero;fill:#fff;fill-opacity:1"/><path d="M8.281 5.563 12.5 8.707V9.5L7.207 5.563Zm-3.594.394.118.691L1.055 9.5H0ZM12.5 0v.059L7.637 3.78l.039-.87L11.523 0ZM0 0l4.668 3.484H3.496L0 .832Zm0 0" style="stroke:none;fill-rule:nonzero;fill:#c8102e;fill-opacity:1"/><path d="M4.707 0v9.5h3.125V0ZM0 3.168v3.164h12.5V3.168Zm0 0" style="stroke:none;fill-rule:nonzero;fill:#fff;fill-opacity:1"/><path d="M0 3.82V5.72h12.5V3.82ZM5.332 0v9.5h1.875V0Zm0 0" style="stroke:none;fill-rule:nonzero;fill:#c8102e;fill-opacity:1"/><path d="M7.844 4.75c0-.89-.715-1.613-1.594-1.613s-1.594.722-1.594 1.613c0 .89.715 1.613 1.594 1.613s1.594-.722 1.594-1.613m0 0" style="stroke:none;fill-rule:nonzero;fill:#012169;fill-opacity:1"/><path d="m6.25 3.137.938 2.918L4.733 4.25h3.032L5.313 6.055M2.605 3.89l.547 1.718-1.437-1.058H3.5L2.055 5.613m7.84-1.722.55 1.718-1.441-1.062h1.785L9.344 5.609M6.25 7.06l.55 1.718-1.445-1.062h1.786L5.695 8.777M6.25.723 6.8 2.44 5.356 1.383h1.786L5.695 2.44" style="stroke:none;fill-rule:nonzero;fill:#fedd00;fill-opacity:1"/></svg>
